dist/img/blog/14.svg

<svg width="25" height="25" viewBox="0 0 25 25" fill="none" xmlns="http://www.w3.org/2000/svg">
<path d="M15.388 16.157L15.6159 16.3849L15.4891 16.5117C14.9516 17.0492 14.4142 17.5866 13.8767 18.1262C13.5005 18.5024 13.1222 18.8807 12.7459 19.257C12.4278 19.5751 12.1118 19.8868 11.7377 20.147C10.766 20.822 9.5342 21.1251 8.36044 20.9768C7.11573 20.8198 5.95487 20.2115 5.1487 19.2419C4.24366 18.1477 3.85237 16.7331 4.05018 15.3315C4.20066 14.2673 4.71876 13.2892 5.47548 12.5325C5.72056 12.2874 5.96564 12.0423 6.2107 11.7973C6.68151 11.3264 7.15013 10.8578 7.62094 10.387L8.6206 9.38736C8.69584 9.4626 8.77323 9.53999 8.84847 9.61524C8.91942 9.68618 8.98821 9.75497 9.05915 9.82591L13.6187 14.3855C14.1325 14.8993 14.6463 15.4131 15.1623 15.929C15.2375 16.0043 15.3128 16.0795 15.388 16.1569L15.388 16.157Z" fill="#202125"/>
<path d="M20.5582 6.90024C20.3174 6.36063 19.9691 5.86835 19.5542 5.44915C18.6857 4.58708 17.527 4.07329 16.3059 4.00666C15.0913 3.94217 13.8917 4.34633 12.9437 5.10306C12.6685 5.32234 12.4256 5.58032 12.1784 5.82967L10.981 7.02709C10.4478 7.56021 9.91683 8.09337 9.38367 8.62437C9.45891 8.69962 9.53415 8.77701 9.60939 8.8544C9.68464 8.93179 9.75988 9.00703 9.83512 9.08443C9.89531 9.14462 9.95551 9.20696 10.0157 9.26715C10.7316 9.98303 11.4496 10.7011 12.1655 11.4169L14.6678 13.9193C15.0848 14.3363 15.5019 14.7534 15.919 15.1704C15.9942 15.2457 16.0716 15.3231 16.1468 15.3983C16.2221 15.4735 16.2995 15.5509 16.3747 15.6262L19.4897 12.5112C20.0874 11.9135 20.541 11.1998 20.7882 10.3893C21.1407 9.2392 21.0461 7.99448 20.5581 6.90025L20.5582 6.90024ZM18.0644 7.54732C17.9075 7.7193 17.6173 7.7064 17.456 7.54732C17.3958 7.48927 17.3335 7.43338 17.269 7.37964C17.2668 7.37749 17.2647 7.37749 17.2625 7.37534C17.2518 7.36889 17.2432 7.36029 17.2324 7.35384C17.2066 7.33664 17.183 7.31944 17.1572 7.30225C17.0884 7.2571 17.0196 7.21625 16.9487 7.17971C16.9121 7.16036 16.8777 7.14531 16.8412 7.12596C16.839 7.12381 16.8369 7.12381 16.8347 7.12166C16.695 7.07007 16.5553 7.02493 16.4091 6.99698C16.3876 6.99268 16.3123 6.96688 16.293 6.97763C16.3596 6.98623 16.3682 6.98838 16.3188 6.98193C16.2994 6.97978 16.2801 6.97763 16.2608 6.97548C16.192 6.96903 16.1232 6.96688 16.0544 6.96688C15.9813 6.96688 15.9082 6.97118 15.8329 6.97763C15.8179 6.97978 15.8029 6.97978 15.79 6.98193C15.7427 6.98838 15.7513 6.98623 15.8157 6.97763C15.7964 6.96688 15.7212 6.99268 15.6997 6.99698C15.5535 7.02492 15.4137 7.07007 15.2762 7.12166C15.2697 7.12381 15.2633 7.12811 15.2547 7.13241C15.2224 7.14746 15.1902 7.16251 15.1601 7.17971C15.0891 7.21625 15.0182 7.2571 14.9516 7.30224C14.9258 7.31944 14.9 7.33664 14.8763 7.35384C14.8656 7.36029 14.857 7.36889 14.8462 7.37534C14.8462 7.37534 14.8441 7.37534 14.8441 7.37749C14.8419 7.37749 14.8419 7.37964 14.8398 7.37964C14.7753 7.43338 14.7129 7.48928 14.6527 7.54732C14.4808 7.71715 14.2163 7.7064 14.0443 7.54732C13.8745 7.39038 13.8831 7.098 14.0443 6.93892C14.2765 6.70889 14.5496 6.5111 14.8484 6.37568C15.3944 6.13061 15.9748 6.05537 16.566 6.15211C17.1314 6.24455 17.6602 6.53692 18.0665 6.93677C18.2364 7.10875 18.2213 7.37748 18.0644 7.5473L18.0644 7.54732Z" fill="#202125"/>
</svg>

<svg width="25" height="25" viewBox="0 0 25 25" fill="none" xmlns="http://www.w3.org/2000/svg"><path d="M15.388 16.157l.228.228-.127.127-1.612 1.614-1.131 1.131c-.318.318-.634.63-1.008.89a4.915 4.915 0 01-3.378.83 4.983 4.983 0 01-3.211-1.735 5.018 5.018 0 01-1.099-3.91c.15-1.065.669-2.043 1.425-2.8l.736-.735 1.41-1.41 1-1 .227.228.211.21 4.56 4.56 1.543 1.544.226.228zm5.17-9.257a4.943 4.943 0 00-1.004-1.45 5.003 5.003 0 00-3.248-1.443 4.99 4.99 0 00-3.362 1.096c-.276.22-.518.477-.766.727l-1.197 1.197c-.533.533-1.064 1.066-1.597 1.597l.225.23.226.23.18.183 2.15 2.15 2.503 2.502 1.251 1.251.228.228.228.228 3.115-3.115a5.108 5.108 0 001.298-2.122 4.996 4.996 0 00-.23-3.489zm-2.494.647c-.157.172-.447.16-.608 0a3.46 3.46 0 00-.187-.167c-.002-.003-.004-.003-.006-.005-.011-.006-.02-.015-.03-.021l-.076-.052a2.299 2.299 0 00-.208-.122c-.037-.02-.071-.035-.108-.054l-.006-.004a2.679 2.679 0 00-.426-.125c-.021-.004-.097-.03-.116-.02.067.01.075.011.026.005l-.058-.007a2.209 2.209 0 00-.428.003l-.043.004a.6.6 0 01.026-.004c-.02-.011-.095.015-.116.019a2.588 2.588 0 00-.424.125l-.021.01a2.023 2.023 0 00-.303.17l-.076.052c-.01.006-.019.015-.03.021 0 0-.002 0-.002.002-.002 0-.002.003-.004.003a3.32 3.32 0 00-.187.167.437.437 0 01-.609 0c-.17-.157-.16-.449 0-.608.232-.23.506-.428.804-.563a2.965 2.965 0 011.718-.224 2.826 2.826 0 011.5.785.44.44 0 01-.002.61z" fill="#202125"/></svg>
